X:1
T:Title
%%score { ( 1 4 ) | ( 2 3 ) }
L:1/8
Q:1/4=84
M:2/4
K:C
V:1 treble nm="Grand Piano"
V:4 treble 
V:2 bass 
V:3 bass 
V:1
 [EG]>[FA] [EG][CE] | [DF]F [G,B,D]2 | [DF]>G [DF]D | [G,CE]4 | [G,^CE]2 [CE]C | ED D2 | DE ^FA | %7
w: I.~H.~Meredith * * *|||||||
 [G,G]4 | [Ec]2 [EG]2 | [CE]/F/G/E/ C2 | FF EG | D4 | EG FA | Gc AF | [CE]E DD | G4 | EG FA | %17
w: ||||||||||
 Gc AF | [CE]E [B,D]D | C4 |] %20
w: |||
V:2
 [C,G,]2 [C,G,]2 | z D G,,2 | z z/ E/ z B, | C,4 | z z/ F/ z A, | A,A, [D,F,A,]2 | %6
 [D,^F,C]2 [D,F,C]2 | z2 F2 | [C,G,]2 [C,G,]2 | z/ D/E/C/ [E,G,]2 | B,B, G,-[E,G,C] | C2 z2 | %12
 [G,C]2 [G,B,]2 | z2 [A,C]2 | z C B,B, | [E,G,C]2 [D,F,]2 | [G,C]2 [G,B,]2 | z2 [A,C]2 | z C z B, | %19
 [C,E,]4 |] %20
V:3
 x4 | [G,,G,]2 z2 | G,2 G,2 | x4 | A,,2 [A,,G,]2 | [D,F,]2 z2 | x4 | G,,4 | x4 | [C,G,]2 z2 | %10
 [D,G,]2 .[C,C]2 | G,4 | C,E, D,F, | [E,G,C]2 F,D, | G,2 [F,G,]2 | x4 | C,E, D,F, | [E,G,C]2 F,D, | %18
 G,2 [G,,F,]2 | x4 |] %20
V:4
 x4 | x4 | x4 | x4 | x4 | x4 | x4 | B,2 z2 | x4 | x4 | x4 | z2 B,2 | x4 | x4 | x4 | z2 B,2 | x4 | %17
 x4 | x4 | x4 |] %20

